X: 1
T: String Quartet in E\b Major opus 64 no 6 mvt 1
C: Franz Joseph Haydn
%%abc-version 2.0
%%abcx-abcm2ps-target-version 5.9.1 (29 Sep 2008)
%%abc-creator hum2abc beta
%%abcx-conversion-date 2021/02/14 14:38:27
%%abc-copyright Copyright (c) 1994, 2000 Center for Computer Assisted Research in the Humanities
%%abc-edited-by Frances Bennion
%%abcx-initial-encoding-date 1997/04/15
%%gracespace 0 6 6
%%humdrum-veritas 3693936611
%%humdrum-veritas-data 183258007
%%linebreak <none>
%%barnumbers 0
L: 1/4
M: 4/4
N: Derived from op64n6-01.krn
Q: "Allegro"
%%staves [1 2 3 4]
V: 1
V: 2
V: 3 clef=alto
V: 4 clef=bass
K: Eb
[V:1]E2 F2 [I:setbarnb2] |
[V:2]B,4- |
[V:3]G,2 A,2 |
[V:4]E,,4- |
[V:1]D B G E |
[V:2]B,4 |
[V:3]F,2 G,2 |
[V:4]E,,4 |
[V:1]C E B, E |
[V:2]C z B, z |
[V:3]E, z E, z |
[V:4]A,, z G,, z |
[V:1]F/>G/ A/>G/ F z |
[V:2]B, F/>E/ D z |
[V:3]B,3 z |
[V:4]D,, E,, B,, z |
[V:1]E2 F2 |
[V:2]B,4- |
[V:3]G,2 A,2 |
[V:4]E,,4- |
[V:1]D B G E |
[V:2]B,4 |
[V:3]F,2 G,2 |
[V:4]E,,4 |
[V:1]_D _d c A |
[V:2]B, B A C |
[V:3]E,4 |
[V:4]G,,2 A,,2 |
[V:1]F B/>D/ E z |
[V:2]B, A, G, z |
[V:3]D, D,/>F,/ E, z |
[V:4]B,,2 E,, z |
[V:1]f b/>d/ e z |
[V:2]d2 e/z3/ |
[V:3]A/B/ A/B/ G/B/ G/B/ |
[V:4]z4 |
[V:1]f b/>d/ e z |
[V:2]d2 e/z3/ |
[V:3]A/B/ A/B/ G/B/ G/B/ |
[V:4]z4 |
[V:1]f/g/ a/=a/ b _a/g/ |
[V:2]A2 G2 |
[V:3]D2 E2 |
[V:4]B,4- |
[V:1]g/f/ f/e/ e z |
[V:2]D2 E z |
[V:3]A2 G z |
[V:4]B,2 E z |
[V:1]=B,2 C2 |
[V:2]=B,2 C2 |
[V:3]=B,2 C2 |
[V:4]=B,,2 C,2 |
[V:1]=A, F D B, |
[V:2]=A, F D B, |
[V:3]=A, F D B, |
[V:4]=A,, F, D, B,, |
[V:1]G, E2 D |
[V:2]G, C2 B, |
[V:3]E,2 =E,2 |
[V:4]E,,2 =E,,2 |
[V:1]C/B,/ C/D/ C z |
[V:2]=A,/G,/ A,/B,/ A, z |
[V:3]F, z3 |
[V:4]F,, F,, F,, F,, |
[V:1]D/C/ D/E/ D z |
[V:2]B,/=A,/ B,/C/ B, z |
[V:3]z4 |
[V:4]F,, F,, F,, F,, |
[V:1](3=A/c/B/ (3A/c/B/ A z |
[V:2]E4 |
[V:3]C4 |
[V:4]F,, F,, F,, F,, |
[V:1](3B/d/c/ (3B/d/c/ B z |
[V:2]D4 |
[V:3]B,4 |
[V:4]F,, F,, F,, F,, |
[V:1](3c/e/d/ (3c/d/e/ (3d/f/e/ (3d/c/B/ |
[V:2]=A2 B2 |
[V:3]E2 D2 |
[V:4]F,, F,, F,, F,, |
[V:1](3=e/g/f/ (3e/g/b/ (3g/e/c/ (3B/G/=E/ |
[V:2]B4 |
[V:3]G4 |
[V:4]F,, F,, F,, F,, |
[V:1](3F/=A/G/ (3F/A/c/ (3f/=e/f/ (3=a/g/f/ |
[V:2]=A4 |
[V:3]F C =A, C |
[V:4]F,, F,, F,, F,, |
[V:1](3=e/g/f/ (3e/g/b/ (3g/e/c/ (3B/G/=E/ |
[V:2]B4 |
[V:3]G4 |
[V:4]F,, F,, F,, F,, |
[V:1]F2 _G/=G/ A/=A/ |
[V:2]=A z3 |
[V:3]F z3 |
[V:4]F,, z3 |
[V:1]B2 c2 |
[V:2]F2 G2 |
[V:3]D2 E2 |
[V:4]z4 |
[V:1]=A f d B |
[V:2]E2 D2 |
[V:3]C2 B,2 |
[V:4]F,2 G,2 |
[V:1]z b2 =a |
[V:2]z g2 f |
[V:3]z4 |
[V:4]=E, C F, C |
[V:1]z g2 f |
[V:2]z e2 d |
[V:3]=A, F B, D |
[V:4]z4 |
[V:1]e d2 c |
[V:2]c B2 =A |
[V:3]E2 F2 |
[V:4]z4 |
[V:1]c ^c d/=c/ d/e/ |
[V:2]=A2 B z |
[V:3]B,2 z2 |
[V:4]z4 |
[V:1]f2 =e f |
[V:2]z3 f- |
[V:3]d2 _d c |
[V:4]B,3 =A, |
[V:1]g/>=a/ b/>c'/ b/a/ g/f/ |
[V:2]f =e f z |
[V:3]B G =A z |
[V:4]G, C, F, z |
[V:1]e2 d ^c |
[V:2]B4 |
[V:3]G,2 G2 |
[V:4]z4 |
[V:1]d2 =B2 |
[V:2]=A2 _A2 |
[V:3]^F2 =F2 |
[V:4]z4 |
[V:1]c/>d/ e/>c/ B =A |
[V:2]G G/>E/ D C |
[V:3]E E, F, F, |
[V:4]z4 |
[V:1]B (3c/f/e/ (3d/c/B/ (3c/f/e/ |
[V:2]D F F F |
[V:3]B, =A, B, A, |
[V:4]z =A, B, A, |
[V:1](3d/c/B/ (3d/g/f/ (3e/d/c/ (3=a/f/a/ |
[V:2]F G G f |
[V:3]B, =B, C C |
[V:4]B, =B, C E, |
[V:1](3b/f/d/ (3=B/c/g/ (3f/d/_B/ (3e/c/=A/ |
[V:2]f e d c |
[V:3]B, G z (3=A,/C/E/ |
[V:4]D, E, F, F, |
[V:1](3B/=A/B/ (3_d/c/B/ (3=E/B/c/ (3d/c/B/ |
[V:2][B=E] z [BE] z |
[V:3]_D z D z |
[V:4]G, z G, z |
[V:1](3G,/=E/B/ (3_d/c/B/ (3b/B/c/ (3d/c/B/ |
[V:2][=E4B4] |
[V:3]_D4 |
[V:4]G,4 |
[V:1](3:2:2b2- b//=a/g/ f/|
[V:2]z B c2 |
[V:3]z D E2 |
[V:4]F, z3 |
[V:1](3:2:2b2- b//=a/g/ f/|
[V:2]z B c2 |
[V:3]z D E2 |
[V:4]F, z3 |
[V:1]b/=a/ g/f/ b/a/ g/f/ |
[V:2]B c B c |
[V:3]D E D E |
[V:4]F, z F, z |
[V:1]b//=a//g//f// b//a//g//f// b//a//g//f// b//a//g//f// |
[V:2]B/c/ B/c/ B/c/ B/c/ |
[V:3]D/E/ D/E/ D/E/ D/E/ |
[V:4]F,/F,/ F,/F,/ F,/F,/ F,/F,/ |
[V:1]b d' b z |
[V:2]B f d z |
[V:3]D [B,D,] [B,D,] z |
[V:4]B,, B,, B,, z |
[V:1]f2 g2 |
[V:2]z2 B2 |
[V:3]z4 |
[V:4]z4 |
[V:1]e c' =a f |
[V:2]c =A f d |
[V:3]z4 |
[V:4]z4 |
[V:1]d b g e |
[V:2]B G e c |
[V:3]z4 |
[V:4]z4 |
[V:1]c f d B |
[V:2]=A2 B2 |
[V:3]F2 G2 |
[V:4]z2 B,2 |
[V:1]z4 |
[V:2]z4 |
[V:3]E c =A F |
[V:4]C =A, F D |
[V:1]z4 |
[V:2]z4 |
[V:3]D B G E |
[V:4]B, G, E C |
[V:1]z4 |
[V:2]z2 d2 |
[V:3]C =A ^F D |
[V:4]=A, ^F, D2 |
[V:1]z4 |
[V:2]e2 ^c2 |
[V:3]B3 =A/G/ |
[V:4]G,2 =A,2 |
[V:1]z4 |
[V:2]d =a ^f c |
[V:3]^F D2 =E/_G/ |
[V:4]D,2 z2 |
[V:1]z4 |
[V:2]B g =B d- |
[V:3]G2 F2 |
[V:4]z4 |
[V:1]g2 a2 |
[V:2]d c/d/ e e |
[V:3]E2 z2 |
[V:4]z2 C2- |
[V:1]^f d' =b g |
[V:2]d z f/=e/ f/d/ |
[V:3]=A ^F d/^c/ d/=B/ |
[V:4]C/=B,/ C/=A,/ G,2 |
[V:1]=e c' =a f |
[V:2]c G e/d/ e/c/ |
[V:3]G/F/ G/=E/ c/=B/ c/=A/ |
[V:4]B,/=A,/ B,/G,/ F,2 |
[V:1]d b g e |
[V:2]B F G g- |
[V:3]F/E/ F/D/ B G/F/ |
[V:4]A,/G,/ A,/F, <E, D,/ |
[V:1]a4 |
[V:2]g2 f2- |
[V:3]E z3 |
[V:4]C,/B,,/ C,/E,/ D,/C,/ D,/B,,/ |
[V:1]g2 a3/ g//a// |
[V:2]f e2 d/c/ |
[V:3]E2 F2 |
[V:4]E, z3 |
[V:1]b/a/ g/f/ g g- |
[V:2]B c/d/ e/d/ c/B/ |
[V:3]D B G E |
[V:4]z4 |
[V:1]g f2 e- |
[V:2]A2 G2 |
[V:3]F D E =A, |
[V:4]z4 |
[V:1]e d2 G |
[V:2]F2 E2- |
[V:3]B, z3 |
[V:4]B,,2 C,2 |
[V:1]c/F/ G/=A/ B2- |
[V:2]E D/C/ F/E/ F/D/ |
[V:3]z4 |
[V:4]=A,, F, D, B,, |
[V:1]B A/G/ A/c/ B/A/ |
[V:2]E3 F |
[V:3]z4 |
[V:4]C,3 D, |
[V:1]G e e =e |
[V:2]G/B/ G/B/ G/B/ G/B/ |
[V:3]z4 |
[V:4]E, z3 |
[V:1]f b/>d/ e z |
[V:2]A/B/ A/B/ G/B/ G/B/ |
[V:3]z4 |
[V:4]z4 |
[V:1]z4 |
[V:2]A/B/ A/B/ G/B/ G/B/ |
[V:3]z4 |
[V:4]D,, F,,/>D,,/ E,, z |
[V:1]_d f/>d/ c z |
[V:2]G/B/ G/B/ A/c/ A/c/ |
[V:3]z4 |
[V:4]z4 |
[V:1]z4 |
[V:2]G/B/ G/B/ A/c/ A/c/ |
[V:3]z4 |
[V:4]_D,, F,,/>D,,/ C,, z |
[V:1]z4 |
[V:2]B/c/ B/c/ A/c/ A/c/ |
[V:3]=E, G,/>E,/ F, z |
[V:4]z4 |
[V:1]z4 |
[V:2]B/c/ B/c/ A/c/ A/c/ |
[V:3]z4 |
[V:4]=E G/>E/ F z |
[V:1]e _g/>e/ f z |
[V:2]C/A/ C/A/ _D/A/ D/A/ |
[V:3]z4 |
[V:4]z4 |
[V:1]z4 |
[V:2]A,/_G/ A,/G/ A,/F/ A,/F/ |
[V:3]z4 |
[V:4]C,, E,,/>C,,/ _D,, z |
[V:1]a __b/>g/ a z |
[V:2]_D/_F/ D/F/ D/F/ D/F/ |
[V:3]z4 |
[V:4]z4 |
[V:1]z4 |
[V:2]_D/_F/ D/F/ D/F/ D/F/ |
[V:3]A __B/>G/ A z |
[V:4]z4 |
[V:1]g a/>f/ g z |
[V:2]_D/E/ D/E/ D/E/ D/E/ |
[V:3]z4 |
[V:4]z4 |
[V:1]z4 |
[V:2]_D/E/ D/E/ D/E/ D/E/ |
[V:3]G, A,/>F,/ G, z |
[V:4]z4 |
[V:1]_g a/>f/ g z |
[V:2]C/E/ C/E/ C/E/ C/E/ |
[V:3]z4 |
[V:4]z4 |
[V:1]z4 |
[V:2]C/E/ C/E/ C/E/ C/E/ |
[V:3]_G, A,/>F,/ G, z |
[V:4]z4 |
[V:1]f _g/>e/ f z |
[V:2]_C/_D/ C/D/ C/D/ C/D/ |
[V:3]z4 |
[V:4]z4 |
[V:1]z4 |
[V:2]_C/_D/ C/D/ C/D/ C/D/ |
[V:3]F, _G,/>E,/ F, z |
[V:4]z4 |
[V:1]_G2 A2 |
[V:2]_D2 E2 |
[V:3]B,2 _C2 |
[V:4]_G,,4- |
[V:1]F _d B _G |
[V:2]_C2 _D2 |
[V:3]A,2 B,2 |
[V:4]G,,4 |
[V:1]E _G _D G |
[V:2]E z _D z |
[V:3]_G, z G, z |
[V:4]_C, z B,, z |
[V:1]A/>B/ _c/>B/ A z |
[V:2]_D A/>_G/ F z |
[V:3]_D,3 z |
[V:4]F,, _G,, _D, z |
[V:1]_G2 A2 |
[V:2]_D2 E2 |
[V:3]B,2 _C2 |
[V:4]_G,4- |
[V:1]F _d B _G |
[V:2]_C2 _D2 |
[V:3]A,2 B,2 |
[V:4]G,4 |
[V:1]G _d B G |
[V:2]_D4 |
[V:3]B,4 |
[V:4]E,4 |
[V:1]A e _c A |
[V:2]_C4 |
[V:3]A,4 |
[V:4]A,4 |
[V:1]=A e c A |
[V:2]E4 |
[V:3]C4 |
[V:4]F,4 |
[V:1]B/f/ _d/B/ =B/f/ =d/B/ |
[V:2]_D2 F2 |
[V:3]B,2 D2 |
[V:4]B,2 G,2 |
[V:1]c/g/ e/c/ c' ^f |
[V:2]E2 e c |
[V:3]C2 ^F, c |
[V:4]C2 A,, A, |
[V:1]g2 ^f2 |
[V:2]d/c/ d/=B/ e/d/ e/c/ |
[V:3]=B/=A/ B/G/ c/B/ c/A/ |
[V:4]G,4- |
[V:1]g2 ^f2 |
[V:2]d/c/ d/=B/ e/d/ e/c/ |
[V:3]=B/=A/ B/G/ c/B/ c/A/ |
[V:4]G,4- |
[V:1]g z3 |
[V:2]d z3 |
[V:3]=B z3 |
[V:4]G, z3 |
[V:1]E2 F2 |
[V:2]B,4- |
[V:3]G,2 A,2 |
[V:4]E,,4- |
[V:1]D B G E |
[V:2]B,4 |
[V:3]F,2 G,2 |
[V:4]E,,4 |
[V:1]C E B, E |
[V:2]C z B, z |
[V:3]E, z E, z |
[V:4]A,, z G,, z |
[V:1]F/>G/ A/>G/ F z |
[V:2]B, F/>E/ D z |
[V:3]B,3 z |
[V:4]D,, E,, B,, z |
[V:1]z4 |
[V:2]z4 |
[V:3]E,2 F,2 |
[V:4]z2 A,,2 |
[V:1]z4 |
[V:2]z4 |
[V:3]D, B, G, E, |
[V:4]B,, G,, E, C, |
[V:1]z4 |
[V:2]z2 B,2 |
[V:3]C, A, F, D, |
[V:4]A,, F,, D, B,, |
[V:1]E2 F D |
[V:2]C2 =A, F |
[V:3]z4 |
[V:4]z4 |
[V:1]B G E c |
[V:2]D B, G E |
[V:3]z4 |
[V:4]z4 |
[V:1]A F d B |
[V:2]C A F D |
[V:3]z4 |
[V:4]z4 |
[V:1]G e2 d |
[V:2]B G A2 |
[V:3]z4 |
[V:4]E,,2 F,,2 |
[V:1]B a2 g- |
[V:2]F f2 e/d/ |
[V:3]z D E E |
[V:4]D,, B,, E,, B,, |
[V:1]g f2 e- |
[V:2]c4- |
[V:3]E2 z2 |
[V:4]A,, A, =A,, =A, |
[V:1]e d2 c- |
[V:2]c B2 A- |
[V:3]z4 |
[V:4]B,, B, C, C |
[V:1]c B B B |
[V:2]A A A A |
[V:3]z F F F |
[V:4]D, D D D |
[V:1]B2 =A B |
[V:2]G2 _G F |
[V:3]G z2 B- |
[V:4]E3 D |
[V:1]c/>d/ e/>f/ e/d/ c/B/ |
[V:2]E c F z |
[V:3]B =A B z |
[V:4]C F, B, z |
[V:1]A2 G ^F |
[V:2]E4 |
[V:3]z4 |
[V:4]C4 |
[V:1]G2 =E2 |
[V:2]D2 _D2 |
[V:3]z2 G,2 |
[V:4]=B,2 _B,2 |
[V:1]F/>G/ A/>F/ E D |
[V:2]C C/>A,/ G, A, |
[V:3]A, z B, F, |
[V:4]A, A,, B,, B,, |
[V:1]E (3F/B/A/ (3G/F/E/ (3F/B/A/ |
[V:2]G, B,2 B,- |
[V:3]G, z3 |
[V:4]E, D, E, D, |
[V:1](3G/F/E/ (3G/c/B/ (3A/G/F/ (3d/B/d/ |
[V:2]B, C2 B,- |
[V:3]z3 F |
[V:4]E, =E, F, A,, |
[V:1](3e/B/G/ (3=E/F/c/ (3B/G/_E/ (3A/F/D/ |
[V:2]B, A G F |
[V:3]E c z (3D,/F,/A,/ |
[V:4]G,, A,, B,, B,, |
[V:1](3E/=A/c/ (3e/c/A/ E z |
[V:2][=A,2E2] z2 |
[V:3]C z3 |
[V:4]C,2 z2 |
[V:1](3D/F/A/ (3B/d/f/ a z |
[V:2][A2B,2] z2 |
[V:3]F2 z2 |
[V:4]D,2 z2 |
[V:1]e2 f2 |
[V:2]z B z c |
[V:3]z G z A |
[V:4]z E z A, |
[V:1]d b g e |
[V:2]z [BD] z [BG] |
[V:3]z F z G |
[V:4]z B, z E |
[V:1]c a B g |
[V:2]z/A/ z/F/ z/G/ z/E/ |
[V:3]z4 |
[V:4]z4 |
[V:1]A f z/G/ z/e/ |
[V:2]z/F/ z/D/ E C |
[V:3]z4 |
[V:4]z4 |
[V:1]z/F/ z/d/ z/E/ z/c/ |
[V:2]D B, C =A, |
[V:3]z4 |
[V:4]z4 |
[V:1]z/D/ B/z B/ d |
[V:2]B, z/D/ B z/B/ |
[V:3]B, z/F/ D z/F/ |
[V:4]B, z/B,/ A, z/A,/ |
[V:1]z/B/ e z/B/ f |
[V:2]e z/B/ f z/B/ |
[V:3]B, z/E/ B, z/F/ |
[V:4]G, z/G,/ D, z/D,/ |
[V:1]z/B/ g z/e/ g |
[V:2]g z/e/ g z/e/ |
[V:3]B, z/G/ B z/B/ |
[V:4]E, z/E,/ _D z/D/ |
[V:1]z/e/ a z/e/ _d' |
[V:2]a z/e/ _d' z/e/ |
[V:3]E z/A/ E z/B/ |
[V:4]C z/C/ G, z/G,/ |
[V:1]z/e/ c'/b/ a/g/ f/e/ |
[V:2]c'/b/ a/g/ f/e/ d/c/ |
[V:3]E z3 |
[V:4]A, z3 |
[V:1]d >e d/e/ f/g/ |
[V:2]B >c B/c/ d/e/ |
[V:3]z/B,/ A/G/ A/G/ F/E/ |
[V:4]z/B,/ F/E/ F/E/ D/C/ |
[V:1]a g f d |
[V:2]f e c A |
[V:3]D E A F |
[V:4]B, C A, B, |
[V:1]e (3B/b/a/ (3g/f/e/ (3B/b/a/ |
[V:2]G B2 B- |
[V:3]E F G F |
[V:4]E, D, E, D, |
[V:1](3g/f/e/ (3c/c'/b/ (3a/g/f/ (3d/d'/d'/ |
[V:2]B c2 B- |
[V:3]G G A F |
[V:4]E, =E, F, A,, |
[V:1](3e/e'/e'/ c' b d |
[V:2]B A G F |
[V:3]E E E B, |
[V:4]G,, A,, B,, B,, |
[V:1](3e/c/=A/ (3_G/E/C/ (3=A,/G/F/ (3G/F/E/ |
[V:2][E=A,] z [A,E] z |
[V:3]_G, z G, z |
[V:4]C, z C, z |
[V:1](3=A,/E/F/ (3_G/F/E/ (3e/E/F/ (3G/F/E/ |
[V:2][E4=A,4] |
[V:3]_G,4 |
[V:4]C,4 |
[V:1](3:2:2e2- e//d/c/ B/|
[V:2]z E F2 |
[V:3]z G, A,2 |
[V:4]B,, z3 |
[V:1](3:2:2e2- e//d/c/ B/|
[V:2]z E F2 |
[V:3]z G, A,2 |
[V:4]B,, z3 |
[V:1]e/d/ c/B/ e/d/ c/B/ |
[V:2]E F E F |
[V:3]G, A, G, A, |
[V:4]B,, z B,, z |
[V:1]e//d//c//B// e//d//c//B// e//d//c//B// e//d//c//B// |
[V:2]E/F/ E/F/ E/F/ E/F/ |
[V:3]G,/A,/ G,/A,/ G,/A,/ G,/A,/ |
[V:4]B,,/B,,/ B,,/B,,/ B,,/B,,/ B,,/B,,/ |
[V:1]e [Bg] [G,E] z |]
[V:2]E [EG,] [EG,] z |]
[V:3]G, B, E z |]
[V:4]E, E,, E,, z |]

